resources/svg/flip-vertical-o.svg

<svg xmlns="http://www.w3.org/2000/svg" viewBox="0 0 15 15" fill="none"><path d="M4.5 3.5H5C5 3.26811 4.84056 3.06665 4.61488 3.01338C4.38919 2.9601 4.15649 3.06899 4.05279 3.27639L4.5 3.5ZM4.5 11.5V12C4.77614 12 5 11.7761 5 11.5H4.5ZM0.5 11.5L0.0527864 11.2764C-0.0247107 11.4314 -0.0164287 11.6155 0.0746746 11.7629C0.165778 11.9103 0.326711 12 0.5 12L0.5 11.5ZM10.5 3.5L10.9472 3.27639C10.8435 3.06899 10.6108 2.9601 10.3851 3.01338C10.1594 3.06665 10 3.26811 10 3.5H10.5ZM10.5 11.5H10C10 11.7761 10.2239 12 10.5 12V11.5ZM14.5 11.5V12C14.6733 12 14.8342 11.9103 14.9253 11.7629C15.0164 11.6155 15.0247 11.4314 14.9472 11.2764L14.5 11.5ZM4 3.5V11.5H5V3.5H4ZM4.5 11H0.5V12H4.5V11ZM0.947214 11.7236L4.94721 3.72361L4.05279 3.27639L0.0527864 11.2764L0.947214 11.7236ZM10 3.5V11.5H11V3.5H10ZM10.5 12H14.5V11H10.5V12ZM14.9472 11.2764L10.9472 3.27639L10.0528 3.72361L14.0528 11.7236L14.9472 11.2764ZM7 0V15H8V0H7Z" fill="black"/></svg>

<svg xmlns="http://www.w3.org/2000/svg" viewBox="0 0 15 15" fill="none"><path d="M4.5 3.5H5a.5.5 0 00-.947-.224L4.5 3.5zm0 8v.5a.5.5 0 00.5-.5h-.5zm-4 0l-.447-.224A.5.5 0 00.5 12v-.5zm10-8l.447-.224A.5.5 0 0010 3.5h.5zm0 8H10a.5.5 0 00.5.5v-.5zm4 0v.5a.5.5 0 00.447-.724l-.447.224zM4 3.5v8h1v-8H4zm.5 7.5h-4v1h4v-1zm-3.553.724l4-8-.894-.448-4 8 .894.448zM10 3.5v8h1v-8h-1zm.5 8.5h4v-1h-4v1zm4.447-.724l-4-8-.894.448 4 8 .894-.448zM7 0v15h1V0H7z" fill="currentColor"/></svg>
